X: 12315
T: Fairy, The
R: jig
M: 6/8
K: Dmajor
B|:AFE F{G}FF|DFA def|edB {d}BAF|FED EFG|
AFE FFE|DFA def|edB AFE|FDC DdB:|
A{B}AF ABd|efe {f}ede|fdB AFD|FED EdB|
AAF ABd|efe {f}ede|fdB AFE|FDC DdB|
A{B}AF AB/c/d|efe ede|fdB AFD|FED EdB|
AFE F{G}FE|DFA def|edB AFE|FDC D2||

